X: 1694
T: A Stranger From Limerick
M:2/4
L:1/16
B:O'Neill's 1694
N:"collected by Fielding"
K:G
D2 \
| GAGF GBdB | ABAG FGAF | Bdgf edcB | AGFE DEFD |
| D2AG GBeB | A2AA ABcA | EedcBAGF | A2G2G2 :|
|: d2 \
| dBGB DBGB | dBgfedcB | cAFA DAFA | BAed dcBA |
| GDB,D G,B,DG | BGedcBAG | FedcBAGF | A2G2G2 :|


